X:1
T:Cinq Poëmes de Baudelaire
T:Recueillement
T:4. Recueillement
T:Claude Debussy
T:Charles Baudelaire
T:Cinq Poëmes de Baudelaire
T:OpenScore (CC0)
T:OpenScore (CC0)
T:OpenScore (CC0)
T:OpenScore (CC0)
T:OpenScore (CC0)
T:OpenScore (CC0)
T:OpenScore (CC0)
T:OpenScore (CC0)
T:OpenScore (CC0)
C:Claude Debussy
Z:Charles Baudelaire
Z:OpenScore (CC0)
%%score 1 { ( 2 5 6 ) | ( 3 4 ) }
L:1/8
Q:1/4=45
M:4/4
K:E
V:1 treble nm="Chant\nVoice"
V:2 bass nm="Piano"
V:5 bass 
V:6 bass 
V:3 bass 
V:4 bass 
V:1
"_Lent et calme""^Lent et calme" z8 | z8 | z8 | z8 | z8 |[Q:1/4=40]"_Rit." z4 !fermata!z2!p! (D2 | %6
w: |||||Sois|
 F2- F) z z!<(! (F- (3F F F | A6)!<)! z2 | %8
w: sa- ge, ô * ma Dou-|leur,|
 z2!p! !tenuto!D !tenuto!D !tenuto!D2 !tenuto!D !tenuto!D | =D2 =C2 z4 | z8 | z2 z!p! =G G G G G | %12
w: et tiens– toi plus tran-|quil- le;||Tu ré- cla- mais le|
 ^G2 z2 z!>(! (G2 G | =G2)!>)! z2!>(! !tenuto!G3 !tenuto!G!>)! || %14
w: soir; il des-|cend, le voi-|
[K:C][M:3/4][Q:1/4=45]"_a tempo rubato"[Q:1/4=45]"^a tempo rubato" !tenuto!G2 z2 z2 | z6 | z2 z4 | %17
w: ci!|||
!p! (G2 G G G G | _B2 B B (3B B B | d2 G2) z G | c3 G A c | G2 z2 (C2 |"^dim." _E3 E E E | %23
w: Une at- mos- phè- re~obs-|cure en- ve- lop- pe la|vil- le, Aux|uns por- tant la|paix, aux|au- tres le sou-|
 =E2) z2 z2 | z2 z2 (G2 | ^d3 B ^G ^D) | =G G G G G G | (^G2 ^D2) z2 | %28
w: ci.|Pen-|dant que des mor-|tels la mul- ti- tu- de|vi- le,|
[Q:1/4=55]"^T""^cresc." ^G G G2 G G | B2- (3B!<(! ^G G (3B ^c d!<)! | ^d4 z2 | %31
w: Sous le fouet du Plai-|sir, _ ce bour- reau sans mer-|ci,|
!mf! e3/2 e/ _B B2 B | (3^c"^dim." c c G2 G G | ^F6- | (F4 ^C2)[Q:1/4=50] || %35
w: Va cueil- lir des re-|mords dans la fê- te ser-|vi-|* le,|
[K:E][M:4/4][Q:1/4=45]"_Tempo 1°"[Q:1/4=45]"^Tempo 1°" z4!p! C3 C | %36
w: Ma Dou-|
 E4 z !tenuto!E (3!tenuto!E !tenuto!E !tenuto!E | G4 z (G G G | B4) z2 (A2 | B4) z4 || %40
w: leur, don- ne moi la|main; viens par i-|ci, Loin|d'eux.|
[M:3/4][Q:1/4=45]"_Même mouvt."[Q:1/4=45]"^Même mouvt." z6 |!p! (G2 B2 c2 | =d _B =c d e =g | %43
w: |Vois se pen-|cher les dé- fun- tes An-|
 ^g4 ^A2) | z!<(! (d B B G G!<)! |!>(! ^^F F ^G G B!>)! B | =c4 c) z | z6 | z2 z2!p! (=c2 | %49
w: né- es|Sur les bal- cons du|ciel, en ro- bes su- ran-|né- es;||Sur-|
 ^c3 c c f | =c F E =D =C D | ^D4) z2 | _E E E2 E E | (3=F F F =G2 A A | B4 B2 || %55
w: gir du fond des|eaux le Re- gret sou- ri-|ant;|Le so- leil mo- ri-|bond s'en- dor- mir sous une|ar- che,|
[K:C][M:3/4]!p!"^Solennel" c2 (3z z (c (3c c c | d4 d2 | c3 c c c | ^c4)!p! (c2 || %59
w: Et, comme un long lin-|ceul traî-|nant à l'O- ri-|ent, En-|
[K:C#][M:4/4][Q:1/4=35]"_Très lent."[Q:1/4=35]"^Très lent." e4) z2!<(! (E2!<)! | %60
w: tends, ma|
!>(! =E4!>)! D2) z2 |!p! z (C =E =F ^F =A c!pp! d |"^dim." (g8) | G6) z2 | z8 | !fermata!z8 |] %66
w: chè- re,|En- tends la dou- ce nuit qui|mar-|che.|||
V:2
!pp! z z2 C,2 G,2 C | G,8[K:treble] |[K:bass] z2 z C,2 G,2 C | (G,4- (3G,A,=C (3DFA) | %4
!<(! (G,4- (3G,A,=C (3DFA)!<)! | %5
[K:treble]!<(! (^ga- (3a!<)!!>(!de!>)!!p! [^B,D]-) !fermata![B,D]2 z | z4 !tenuto![=CD]2 z2 | A8 | %8
 z8 | (GA-!<(! (3A^E^F G A2 ^c)!<)! |!pp! (GA- (3A^EF!<(! G A2 c)!<)! | !tenuto!.[D^^Fd]8 | %12
 !tenuto!.[=D^F=d]8 | !tenuto!.[^D^^F^d]8 ||[K:C][M:3/4] !tenuto!.[EGe]4 z2 | %15
[K:bass]"^sourd. et très soutenu" ([_B,D] [CE]2 [B,D]2 [CE] | ^F2 G2 EF) | %17
 ([_B,D] [CE]2 [B,D]2 [CE] | ^F2 G2 EF) |!>(! ([_B,D] [CE]2 [B,D]2 [CE])!>)! |[K:treble] [_EF]6 | %21
 [_EG]6 | [_EF]6 | (([_B,_B]2 [Cc]2 [A,A][B,B])) | ([=B,=B] [^C^c]2 [B,B]2 [Cc] | %25
 [^D^d]2 [^E^e]2 [Cc][Dd]) | ([B,B] [^C^c]2 [B,B]2 [Cc] | [^D^G^d]4 [^EB^e]2) | %28
"_cresc." ([^F^G^f]2 [=FB=f]2 [^G,EG]2) | ([^F^G^f]2 [=FB=f]2 [^G,EG]2) | ([A,=G]4 [Ag]2) | %31
 ([Gg]2 [^F^f]2 [=F=f]2 | [Ee]2 [_E_e]2 [Dd]2) |!p! ([^C^c-]6 |!p! [Cc]4) z2 || %35
[K:E][M:4/4][K:bass]!pp! z z2 C,2 E,2 C | z[K:treble]!<(! (C- (3CGc!<)!!>(! GC- C!>)!G,) | %37
[K:bass] z2 z C,2 G,2 C |!<(! (G,4- (3G,A,=C (3DFA)!<)! |"_dim." (G,4[K:treble] G4) || %40
[M:3/4] g4 z2 | ([c^eg]!pp![ceg]- [ceg][ceg]- [ceg][ceg]) | (e'2 =d'2 _b2 |!<(! c'4 =d'2)!<)! | %44
!pp!!<(! (^d'd' bb g!<)!d) |!<(! ([bd'][bd'] [gb][gb]!<)!!>(! g[dg])!>)! | %46
!pp! ([=c=fa][cfa]- (3[cfa][cfa][cfa]- [cfa][cfa]-) | %47
 ([=c=fa][cfa]- (3[cfa][cfa][cfa]- [cfa][fa=c']) | %48
 (3([^fa=d'][=dfa][fad'] (3[dfa][fad'][dfa] (3[fad'][dfa][fad'] | %49
!pp! (3[fa^d'][^dfa][fad'] (3[dfa][fad'][dfa] (3[fad'][dfa][fad']) | %50
!<(! (3([fa=d'][=dfa][fad'] (3[dfa][fad'][dfa] (3[fad'][dfa][fad'])!<)! | %51
 (3([fa^d']!>(![^dfa][fad'] (3[dfa][fad'][dfa] (3[ad'f'][fad']!>)![ad'f']) | %52
!pp! (3(=g'd'b (3=gdB) (3=G z z | (3(=g'd'b (3=gdB) (3=G=cG | %54
 (!tenuto!.[A,D=G]!tenuto!.[A,DG]- !tenuto!.[A,DG]!tenuto!.[A,DG]- !tenuto!.[A,DG]!tenuto!.[A,DG]) || %55
[K:C][M:9/8]"^Solennel" (!tenuto!.[G,CEG] !tenuto!.[G,CEG]2- [G,CEG] !tenuto!.[G,CEG]2 !tenuto!.[A,CEA] !tenuto!.[A,CEA]2) x4 | %56
 (!tenuto!.[_B,DF_B] !tenuto!.[B,DFB]2- [B,DFB] !tenuto!.[B,DFB]2 !tenuto!.[A,DFA] !tenuto!.[A,DFA]2) x4 | %57
 (!tenuto!.[G,CEG] !tenuto!.[G,CEG]2- [G,CEG] !tenuto!.[G,CEG]2 !tenuto!.[A,CEA] !tenuto!.[A,CEA]2) x4 | %58
!<(! (!tenuto!.[^A,^C^E^A] !tenuto!.[A,CEA]2 !tenuto!.[CEA^c] !tenuto!.[CEAc]2 !tenuto!.[EAc^e] !tenuto!.[EAce]2)!<)! x2 || %59
[K:C#][M:4/4] ([^^F^^f]2 [Gg]2 [Ee]2 [^F^f]2 | !arpeggio![=G=c=e=g]4!pp! [^G^Bd^g]4) | %61
!pp! ([A^c^ea]2 [Bgb]2 [cc']2 [dd']2 | [dg=bd']4 [cgbc']2 [dgbd']2 | %63
 [=e=e']2 [ff']2 [dd']2 [ee']2 |!ppp! [c'^e']8) |[K:bass] !fermata![C,E,]8 |] %66
V:3
 z G,,3- G,,4 | [E,,B,,]8 | z G,,3- G,,4 |!pp! (B,, =D,2 B,, (3:2:2=C,2 ^D, (3F,A,=C) | %4
!pp! (B,, =D,2 B,, (3:2:2=C,2 ^D, (3F,A,C) | %5
[K:treble] ([DF]2- (3[DF][FA][=G^A] F- !fermata!=A2) z | z4[K:bass]!p! A,2 z2 |!pp! [=F,B,]8 | z8 | %9
!p! (=D,2 =C,2 B,,2 F,,2) | ^D,2 =D,2 F,2- F,A, | !tenuto!.[D,,^A,,^^F,]8 | !tenuto!.[E,,B,,G,]8 | %13
 !tenuto!.[D,,^A,,^^F,]8 ||[K:C][M:3/4]!pp! !tenuto!.[G,,E,]4 z2 | %15
 (3(C,G,,!pp!D,, (3C,,G,,D,,) (3(C,G,,D,, | (3C,,G,,D,,) (3(C,G,,D,, (3C,,G,,D,,) | %17
 (3(C,G,,D,, (3C,,G,,D,,) (3(C,G,,D,, | (3C,,G,,D,,) (3(C,G,,D,, (3C,,G,,D,,) | %19
 (3(C,G,,D,, (3C,,G,,D,,) (3C,G,,D,, | (3(F,,,F,C, (3F,,F,C,) (3(G,F,C, | %21
 (3F,,F,C,) (3(G,F,C, (3F,,F,C,) | (3(F,,,F,C, (3F,,F,C,) (3G,F,C, | %23
 (3(F,,_D,G,, (3G,D,G,, (3F,,D,G,,) |!p! (3(=G,^D,^C, (3B,,^E,,^D,) (3(C,B,,G, | %25
 (3^D,^C,B,,) (3(^E,,^G,D, (3C,B,,E,,) | (3(=G,^D,^C, (3B,,^E,,D,) (3(C,B,,G, | %27
 (3^D,^C,B,,) (3(^E,,^G,D, (3C,B,,^D,,) | (3z (B,B,,-) (3B,,(B,B,,-) (3B,,(B,B,,-) | %29
 (3B,,(B,B,,-) (3B,,(B,B,,-) (3B,,(B,B,,) | [B,,,B,,]4 B,2 |!mf! [_B,E]2 [B,D]2 [B,_D]2 | %32
 [G,^C]2 [G,=B,]2 [G,_B,]2 | [^F,,^D,A,]6- |[I:staff -1] C[I:staff +1] A,2 ^D,2 ^F,, || %35
[K:E][M:4/4] z G,,3- G,,4 | [E,,B,,]8 | z G,,3- G,,4 | (B,, =D,2 B,, (3:2:2^B,,2 D, (3F,A,=C) | %39
 (B,, =D,2 B,,) (B, D2 B,) ||[M:3/4][K:treble] (B=d) (Bd) (Bd) | !arpeggio![^EGB][EGB]- [EGB]4 | %42
 ([=C=E_B][CEB]- [CEB][CEB]- [CEB][EGB]) | ([^E^GB][EGB] [CE][CE] [=DF][DF]) | (^^F2 G2 B2) | %45
 (^^F2 G2 B2) |[K:bass] (=F,,=C, (3=F,A,=C _E2) | (=F,,=C, (3=F,A,=C _E2) |!<(! [=C=D]6!<)! | %49
 (G2[K:treble] A2 c2 |[K:bass] [=C=D]6) | (G2[K:treble] A2)[K:bass] [F,,,F,,]2 | %52
 ([=F,,,=F,,]2 [=G,,,=G,,]2 [A,,,A,,]2) | ([=F,,,=F,,]2 [=G,,,=G,,]2 [A,,,A,,]2 | [B,,,B,,]6) || %55
[K:C][M:9/8] x3 [C,,G,,E,]6- [C,,G,,E,]3 x | x3 [_B,,,F,,D,]6- [B,,,F,,D,]3 x | %57
 x3 [C,,G,,E,]6- [C,,G,,E,]3 x | x3 [^A,,,^E,,^C,]6 z4/3 z2/3 || %59
[K:C#][M:4/4] (G,,,!p!G,,- (3G,,C,E, G, C2 E | !arpeggio!=E4) !arpeggio![DF]4 | %61
 ^^FG =E^E !arpeggio![CD^F]2 [F=A]2 | (=E,, =B,,2 =E,2 G,2 =B,- | =B, =E2[K:treble] G2 =B2 g) | %64
[K:bass] [C,,,G,,,C,,]8 | !fermata![C,,G,,]8 |] %66
V:4
 C,,8 | x8 | C,,8 | E,,8 | E,,8 |[K:treble] x4 ^G F2 x | x4[K:bass] x4 | x8 | x8 | x8 | %10
 x4 =C,2 B,,2 | x8 | x8 | x8 ||[K:C][M:3/4] (3C,,G,,C,, (3G,,C,,G,, (3C,,G,,C,, | x6 | x6 | x6 | %18
 x6 | x6 | x6 | x6 | x6 | x6 | x6 | x6 | x6 | x6 | (=D,,2 ^D,,2 E,,2) | =D,,2 ^D,,2 E,,2 | x6 | %31
 (C,D, E,2 F,2 | A,,=B,, ^C,2 D,2) | x6 | [F,,D,A,]4 z2 ||[K:E][M:4/4] C,,8 | x8 | C,,8 | E,,8 | %39
 (E,,4 E,4) ||[M:3/4][K:treble] E4 z2 | (C2 B,2 G,2 | =G,4) z2 | (^C2 B,2 G,2 | [^E,B,^D]6) | %45
 [^E,B,D]6 |[K:bass] =F,,,4 z2 | =F,,,4 z2 | ^G,2 A,2 ^E,^F, | !arpeggio![B,,A,^D]6[K:treble] | %50
[K:bass] ^G,2 A,2 ^E,F, | !arpeggio![B,,A,^D]6[K:treble][K:bass] | x6 | x6 | x6 || %55
[K:C][M:9/8] x6 x2!pp! [C,,,C,,]3 x4/3 x2/3 | x8!pp! [C,,,C,,]3 x2 | x8!pp! [C,,,C,,]3 x2 | x11 || %59
[K:C#][M:4/4] G,,,8 | !arpeggio![=C,_B,]4 !arpeggio![G,,D,G,^B,]4 | %61
 !arpeggio![C,G,C]2 G,2 !arpeggio![=B,,F,=A,]2 [=B,D]2 | !>![=E,,,=E,,]8- | [E,,,E,,]8[K:treble] | %64
[K:bass] x8 | x8 |] %66
V:5
 x8 | =D,8[K:treble] |[K:bass] x8 | (=D,!<(! F,2 D, (3:2:2^D,2 F, (3A,=C^D)!<)! | %4
 (=D, F,2 D, (3:2:2^D,2 F, (3A,=CD) |[K:treble] ^B2- (3BB^c x4 | x8 | (=D_E- (3EB,=C D E3) | x8 | %9
 F2 =D2 ^D4 | F2 z2 =D2 ^DF | x8 | x8 | x8 ||[K:C][M:3/4] x6 |[K:bass] E,6 | %16
 !arpeggio!!>![E,_B,D]6 | E,6 | !arpeggio!!>![E,_B,D]6 | E,6 |[K:treble] (G, A,2 G,2 A, | %21
 _B,2 C2 A,B,) | (G, A,2 G,2 A,) | =E4 x2 | ^D2 G2 D2 | ^G6 | ^D2 =G2 D2 | x6 | x6 | x6 | %30
 (3^DB,D (3B,DB, (3^dBd | (3d_Bd (3BdB (3_dBd | (3=B"^dim."GB (3GBG (3_BGB | %33
 (3A^F"^dim."A (3FAF AF | x6 ||[K:E][M:4/4][K:bass] x8 | [=D,G,]8[K:treble] |[K:bass] x8 | %38
 (=D, F,2 D, (3:2:2^D,2 F, (3A,=CD) | (=D, F,2 D,)[K:treble] (=D F2 D) || %40
[M:3/4] (=d!p!f) (df) (df) | c'4 x2 | ([=e=g_b][egb]- [egb][egb]) z [eg] | %43
 [c^e^g][ceg] [ce][ce] [=df][df] | [^d^^f][df] [dg][dg] dG | ^^ff dd dG | A2 =G2 x2 | A2 =G2 x2 | %48
 x6 | x6 | x6 | x6 | (3[b^d'][=gb][dg] (3[Bd][=GB][DG] (3([=C_E][EG=c][Gc_e]) | %53
 (3[bd'][=gb][dg] (3[Bd][=GB][DG] (3([=C_E][EG][CE]) | x6 ||[K:C][M:9/8] x13 | x13 | x13 | x11 || %59
[K:C#][M:4/4] c4 c4 | x8 | x4 [f=a]4 | x8 | [g=b]8 | [^eg]8 |[K:bass] x8 |] %66
V:6
 x8 | z[K:treble] (C- (3CGc GC- CG,) |[K:bass] x8 | x8 | x8 |[K:treble] x8 | x8 | x8 | x8 | %9
 =C2 A,6 | =C4 x4 | x8 | x8 | x8 ||[K:C][M:3/4] x6 |[K:bass] x6 | x6 | x6 | x6 | x6 | %20
[K:treble] x6 | x6 | x6 | x6 | x6 | x6 | x6 | x6 | x6 | x6 | x6 | x6 | x6 | x6 | x6 || %35
[K:E][M:4/4][K:bass] x8 | x[K:treble] x7 |[K:bass] x8 | x8 | x4[K:treble] x4 ||[M:3/4] x6 | x6 | %42
 x6 | x6 | x6 | x6 | x6 | x6 | x6 | x6 | x6 | x6 | x6 | x6 | x6 ||[K:C][M:9/8] x13 | x13 | x13 | %58
 x11 ||[K:C#][M:4/4] x8 | x8 | x8 | x8 | x8 | x8 |[K:bass] x8 |] %66

